src/icons/file-svg.svg

<svg width="16" height="16" viewBox="0 0 16 16" fill="none" xmlns="http://www.w3.org/2000/svg">
<path d="M7.74697 3.98915C8.33986 3.62479 8.6363 3.44261 8.83721 3.41223C9.04602 3.38064 9.16607 3.39477 9.36183 3.47398C9.55019 3.55019 9.74392 3.74392 10.1314 4.13137L11.8686 5.86863C12.2561 6.25608 12.4498 6.44981 12.526 6.63817C12.6052 6.83394 12.6194 6.95398 12.5878 7.16279C12.5574 7.3637 12.3752 7.66014 12.0108 8.25302C11.3553 9.31981 11 10.5558 11 11.8284C11 12.1619 11 12.3286 10.9569 12.4706C10.88 12.724 10.7058 12.9365 10.4724 13.0616C10.3416 13.1317 10.1782 13.1644 9.85118 13.2298L3.54546 14.4909C3.15574 14.5689 2.96088 14.6078 2.876 14.5536C2.80268 14.5067 2.759 14.4251 2.76068 14.3381C2.76262 14.2374 2.90314 14.0969 3.18417 13.8158L5.64645 11.3536C5.87282 11.1272 6.17986 11 6.5 11C7.32843 11 8 10.3284 8 9.5C8 8.67157 7.32843 8 6.5 8C5.67157 8 5 8.67157 5 9.5C5 9.82014 4.87282 10.1272 4.64645 10.3536L2.18417 12.8158C1.90314 13.0969 1.76262 13.2374 1.66191 13.2393C1.5749 13.241 1.49329 13.1973 1.44642 13.124C1.39218 13.0391 1.43115 12.8443 1.50909 12.4545L2.77024 6.14882C2.83563 5.82185 2.86833 5.65836 2.93844 5.52757C3.06352 5.29421 3.27604 5.11999 3.52939 5.0431C3.6714 5 3.83812 5 4.17157 5C5.4442 5 6.68019 4.64474 7.74697 3.98915Z" fill="#F17F66"/>
<path d="M13.75 5.75L10.25 2.25C10.2102 2.21017 10.1903 2.19026 10.1742 2.17263C9.82754 1.79122 9.82754 1.20878 10.1742 0.827371C10.1903 0.80974 10.2102 0.789827 10.25 0.75C10.2898 0.710173 10.3097 0.69026 10.3274 0.674234C10.7088 0.32754 11.2912 0.32754 11.6726 0.674234C11.6903 0.69026 11.7102 0.710173 11.75 0.749999L15.25 4.25C15.2898 4.28983 15.3097 4.30974 15.3258 4.32737C15.6725 4.70878 15.6725 5.29122 15.3258 5.67263C15.3097 5.69026 15.2898 5.71017 15.25 5.75C15.2102 5.78983 15.1903 5.80974 15.1726 5.82577C14.7912 6.17246 14.2088 6.17246 13.8274 5.82577C13.8097 5.80974 13.7898 5.78983 13.75 5.75Z" fill="#F17F66"/>
</svg>

<svg xmlns="http://www.w3.org/2000/svg" width="16" height="16" fill="none"><path fill="#F17F66" d="M7.747 3.99c.593-.365.89-.547 1.09-.578a.86.86 0 0 1 .525.062c.188.076.382.27.77.657l1.737 1.738c.387.387.58.58.657.77a.85.85 0 0 1 .062.524c-.03.2-.213.497-.577 1.09A6.83 6.83 0 0 0 11 11.828c0 .334 0 .5-.043.643a1 1 0 0 1-.485.59c-.13.07-.294.103-.62.169l-6.307 1.26c-.39.079-.584.118-.669.064a.25.25 0 0 1-.115-.216c.002-.1.142-.241.423-.522l2.462-2.462c.227-.227.534-.354.854-.354A1.5 1.5 0 1 0 5 9.5c0 .32-.127.627-.354.854l-2.462 2.462c-.28.28-.421.421-.522.423a.25.25 0 0 1-.216-.115c-.054-.085-.015-.28.063-.67L2.77 6.15c.066-.327.098-.49.168-.621a1 1 0 0 1 .591-.485C3.671 5 3.84 5 4.172 5a6.83 6.83 0 0 0 3.575-1.01m6.003 1.76-3.5-3.5-.076-.077a1 1 0 0 1 0-1.346L10.25.75l.077-.076a1 1 0 0 1 1.346 0l.077.076 3.5 3.5.076.077a1 1 0 0 1 0 1.346l-.076.077-.077.076a1 1 0 0 1-1.423-.076"/></svg>
